X: 38130
T: Sporting Days Of Easter, The
R: reel
M: 4/4
K: Dmixolydian
|:d2cA GEEG|A/A/AGE A/A/AD2|d2cA GEEG|A/A/AGE D4:|
c3d egge|eaag egge|c3d egge|abge d2ed|
c3d egge|eaag egge|f2ed cAGB|Add^c defe||

